X: 23
T: Praeludia organi op. 5 – Allegretto
C: Franciszek Walczyński
%%abc-version 2.0
%%abcx-abcm2ps-target-version 5.9.1 (29 Sep 2008)
%%abc-creator hum2abc beta
%%abcx-conversion-date 2021/10/04 07:38:40
%%abc-edited-by Andrzej Borzym
%%abc-edited-by Krzysztof Stępień
%%abcx-initial-encoding-date 2021-07-26
%%humdrum-veritas 2404958738
%%humdrum-veritas-data 1020711791
%%linebreak <none>
%%barnumbers 0
L: 1/8
M: 3/4
N: Derived from pl-kozmzk--mzk-m-159--012_walczynski-franciszek--praeludia-organi-op-5-allegretto.krn
Q: "12. Allegretto."
%%staves {1 2}
V: 1 clef=treble
V: 2 clef=bass
K: B
[V:1] z6 & z6 | 
[V:2] .B,,F,B,D.C.A, | 
[V:1] z6 & z2z FBd | 
[V:2] B,A,/G,/ .F,.E,.D,.C, | 
[V:1] z6 & .c.A BA/G/ FE | 
[V:2] C,E,D,2E,2 | 
[V:1] z2z DGB & DCB,4 | 
[V:2] F,^^F,G,4 | 
[V:1] .A.^^F G^F/E/ DC & C2B,3G, | 
[V:2] ^^F,2G,3E,- | 
[V:1] B,C!fermata!D4 & G,2^^F,4 | 
[V:2] E,2!fermata!D,4 | 
[V:1] z DAc.B.G & z6 | 
[V:2] z6 | 
[V:1] ^^F6 & z6 | 
[V:2] .D,A,CE.D.C | 
[V:1] GAB^Bcd & D4G2- | 
[V:2] B,^^F,.G,.^F,.E,.D, | 
[V:1] e2>^e2 f=e & G4F2- | 
[V:2] C,G,CB,!accent!A,2 | 
[V:1] d2edcB & F2EFG2 | 
[V:2] B,=A,.G,.F,.E,.^E, | 
[V:1] A2Bcde & F4BG/A/ | 
[V:2] F,=E,.D,.A,,.B,,.C, | 
[V:1] d2c2A2 & BF GC FE | 
[V:2] D,2E,2F,2 | 
[V:1] B4A2 & D4E2 | 
[V:2] .B,,F,B,D.C.F, | 
[V:1] !fermata!B6 & D6 |]  
[V:2] !fermata!B,,6 |]  


